lib/flags/m/SS.svg

<svg xmlns="http://www.w3.org/2000/svg" fill="none" viewBox="0 0 20 15"><mask id="SS_svg__a" width="20" height="15" x="0" y="0" mask-type="alpha" maskUnits="userSpaceOnUse"><path fill="#fff" d="M0 0H20V15H0z"/></mask><g mask="url(#SS_svg__a)"><path fill="#F7FCFF" fill-rule="evenodd" d="M0 0H20V15H0V0Z" clip-rule="evenodd"/><path fill="#272727" fill-rule="evenodd" d="M0 0V5H20V0H0Z" clip-rule="evenodd"/><path fill="#4E8B1D" fill-rule="evenodd" d="M0 10V15H20V10H0Z" clip-rule="evenodd"/><path fill="#E31D1C" stroke="#F7FCFF" stroke-width="1.25" d="M0 4.375H-0.625V5V10V10.625H0H20H20.625V10V5V4.375H20H0Z"/><path fill="#3D58DB" fill-rule="evenodd" d="M0 0L12.5 7.5L0 15V0Z" clip-rule="evenodd"/><path fill="#FECA00" fill-rule="evenodd" d="M4.15492 9.00534L2.89272 10.3178L2.76087 8.45192L1.1512 7.46034L2.82987 6.9336L3.1044 5.08474L4.26658 6.54864L5.96159 6.09446L5.0855 7.82904L5.93745 9.50201L4.15492 9.00534Z" clip-rule="evenodd"/></g></svg>

<svg xmlns="http://www.w3.org/2000/svg" fill="none" viewBox="0 0 20 15"><mask id="SS_svg__a" width="20" height="15" x="0" y="0" maskUnits="userSpaceOnUse"><path fill="#fff" d="M0 0h20v15H0z"/></mask><g mask="url(#SS_svg__a)"><path fill="#F7FCFF" fill-rule="evenodd" d="M0 0h20v15H0V0z" clip-rule="evenodd"/><path fill="#272727" fill-rule="evenodd" d="M0 0v5h20V0H0z" clip-rule="evenodd"/><path fill="#4E8B1D" fill-rule="evenodd" d="M0 10v5h20v-5H0z" clip-rule="evenodd"/><path fill="#E31D1C" stroke="#F7FCFF" stroke-width="1.25" d="M0 4.375h-.625v6.25h21.25v-6.25H0z"/><path fill="#3D58DB" fill-rule="evenodd" d="M0 0l12.5 7.5L0 15V0z" clip-rule="evenodd"/><path fill="#FECA00" fill-rule="evenodd" d="M4.155 9.005l-1.262 1.313-.132-1.866-1.61-.992 1.679-.526.274-1.85L4.267 6.55l1.695-.454-.877 1.734.852 1.673-1.782-.497z" clip-rule="evenodd"/></g></svg>
